X: 16
T:Gipsy's Hornpipe
% Nottingham Music Database
S:Kevin Briggs
M:4/4
L:1/8
R:Hornpipe
K:G
d2|"G"gfed edBd|"C"ed e/3f/3g/3 "G"B2BA|"Em"GFGA BABd|"Am"e2A2 "D7"A2 d/3e/3f/3|
"G"gfed edBd|"C"ed e/3f/3g/3 "G"B2BA|"G"GFGA "D"BcBA|"Em"G2E2 E2:|:
gf|"Em"e2B2 B2gf|"Em"e2B2 B2gf|"Em"edef "B7"gfga|"Em"b2e2 "D7"e2ga|
"G"bgaf g2gf|"C"ed e/3f/3g/3 "G"B2BA|"G"GFGA "D"BcBA|"Em"G2E2 E2:|


